!!!OTL: Qongren fanshen da yangsan
!!!ARE: Asia, China,ÿHunan, Shaoshan
!! I, 516
!!!SCT: C1720
!!!YEM: Copyright 1995, estate of Helmut Schaffrath.
**kern
*ICvox
*Ivox
*M2/4
*k[]
*C:
{8ee
8ee
4gg
=1
8ee
16ee
16cc
8ee
8cc
=2
8.dd
16cc
4ee
=3
16cc
16dd
16cc
16a
4g}
=4
{8.a
16cc
8ee
8gg
=5
8cc
16cc
16a
4g
=6
8ee
16a
16cc
8cc
8a
=7
8e
4g
8a
=8
2g}
=9
{8a
8cc
16a
16cc
16a
16g
=10
8e
8g
4e
=11
8a
8cc
16a
16cc
16a
16g
=12
8e
8g
4e}
=13
{8ee
16a
16cc
8cc
8a
=14
8e
4g
8a
=15
2g}
==
!!!AGN: Wuge, Dengge. Geming lishi minge
!!!ONB: ESAC (Essen Associative Code) Database: ZHEN
!!!AMT: simple duple
!!!AIN: vox
!!!EED: Helmut Schaffrath
!!!EEV: 1.0
*-
